src/lib/packages/icons/src/assets/line/desktop-mobile.svg

<svg width="24" height="24" viewBox="0 0 24 24" fill="none" xmlns="http://www.w3.org/2000/svg">
<path d="M20.75 9.31396V5C20.75 2.582 19.418 1.25 17 1.25H5C2.582 1.25 1.25 2.582 1.25 5V13C1.25 15.418 2.582 16.75 5 16.75H8.25V19.25H6.5C6.086 19.25 5.75 19.586 5.75 20C5.75 20.414 6.086 20.75 6.5 20.75H12.3159C12.5539 22.028 13.473 22.75 14.928 22.75H20.071C21.773 22.75 22.75 21.7691 22.75 20.0581V11.9419C22.75 10.4749 22.028 9.54996 20.75 9.31396ZM5 2.75H17C18.577 2.75 19.25 3.423 19.25 5V9.25H14.929C13.473 9.25 12.5539 9.972 12.3169 11.25H2.75098V5C2.74998 3.423 3.423 2.75 5 2.75ZM2.75 13V12.75H12.25V15.25H12H9H5C3.423 15.25 2.75 14.577 2.75 13ZM9.75 16.75H12H12.25V19.25H9.75V16.75ZM21.25 20.0581C21.25 20.9381 20.941 21.25 20.071 21.25H14.928C14.058 21.25 13.749 20.9381 13.749 20.0581V11.9419C13.749 11.0619 14.058 10.75 14.928 10.75H20.071C20.941 10.75 21.25 11.0619 21.25 11.9419V20.0581ZM18.5 19.5C18.5 20.052 18.052 20.5 17.5 20.5C16.948 20.5 16.5 20.052 16.5 19.5C16.5 18.948 16.948 18.5 17.5 18.5C18.052 18.5 18.5 18.948 18.5 19.5Z" fill="currentColor"/>
</svg>

<svg xmlns="http://www.w3.org/2000/svg" width="24" height="24" fill="none"><path fill="currentColor" d="M20.75 9.314V5c0-2.418-1.332-3.75-3.75-3.75H5C2.582 1.25 1.25 2.582 1.25 5v8c0 2.418 1.332 3.75 3.75 3.75h3.25v2.5H6.5a.75.75 0 0 0 0 1.5h5.816c.238 1.278 1.157 2 2.612 2h5.143c1.702 0 2.679-.98 2.679-2.692v-8.116c0-1.467-.722-2.392-2-2.628ZM5 2.75h12c1.577 0 2.25.673 2.25 2.25v4.25h-4.321c-1.456 0-2.375.722-2.612 2H2.75V5c0-1.577.673-2.25 2.25-2.25ZM2.75 13v-.25h9.5v2.5H5c-1.577 0-2.25-.673-2.25-2.25Zm7 3.75h2.5v2.5h-2.5v-2.5Zm11.5 3.308c0 .88-.309 1.192-1.179 1.192h-5.143c-.87 0-1.179-.312-1.179-1.192v-8.116c0-.88.309-1.192 1.179-1.192h5.143c.87 0 1.179.312 1.179 1.192v8.116ZM18.5 19.5a1 1 0 1 1-2 0 1 1 0 0 1 2 0Z"/></svg>
